images/icons/discount-white.svg

<svg width="86" height="78" viewBox="0 0 86 78" fill="none" xmlns="http://www.w3.org/2000/svg">
<g id="Group 2">
<path id="Vector" d="M80.111 14.0278H76.7663L76.7696 8.04836C76.7715 4.03403 73.5077 0.766316 69.4928 0.764358L44.108 0.75C44.1067 0.75 44.1061 0.75 44.1048 0.75C42.6599 0.75 41.3011 1.31257 40.2791 2.33459L2.38214 40.2315C1.00705 41.6066 0.25 43.4346 0.25 45.3795C0.25 47.3243 1.00705 49.1523 2.38214 50.5274L26.9759 75.1211C28.3953 76.5406 30.2599 77.25 32.1238 77.25C33.9884 77.25 35.8529 76.5406 37.2724 75.1211L61.1326 51.261C61.7852 50.6083 61.7852 49.5504 61.1326 48.8984C60.4799 48.2458 59.422 48.2458 58.7694 48.8984L34.9092 72.7586C33.3736 74.2942 30.8747 74.2942 29.339 72.7586L4.74532 48.1649C4.00132 47.4209 3.59147 46.4315 3.59147 45.3795C3.59147 44.3274 4.00132 43.338 4.74532 42.594L42.6416 4.69776C43.0325 4.30683 43.552 4.09147 44.1048 4.09147H44.1061L69.4908 4.10582C71.6627 4.10648 73.4294 5.8751 73.4281 8.04706L73.4203 22.0473H65.8948C65.2467 22.0473 64.66 21.7823 64.2358 21.3555C64.9348 21.0559 65.59 20.6232 66.1598 20.0535C68.5608 17.6518 68.5608 13.7452 66.1598 11.3441C63.7581 8.94247 59.8514 8.94247 57.4498 11.3441C55.0487 13.7452 55.0487 17.6518 57.4498 20.0535C58.34 20.9437 59.4377 21.503 60.5883 21.7334C61.406 23.8681 63.4755 25.3887 65.8948 25.3887H73.4183L73.4137 33.3978C73.4137 33.9506 73.1984 34.4694 72.8075 34.8597L68.2208 39.447C67.5681 40.0997 67.5681 41.1576 68.2208 41.8102C68.8727 42.4622 69.9307 42.4622 70.5833 41.8102L75.1706 37.2229C76.1913 36.2015 76.7546 34.8441 76.7552 33.3998L76.7598 25.3887H80.111C83.243 25.3887 85.7915 22.8409 85.7915 19.7083C85.7915 16.5763 83.243 14.0278 80.111 14.0278ZM59.8129 13.7067C60.3625 13.1572 61.0836 12.883 61.8054 12.883C62.5266 12.883 63.2477 13.1578 63.7972 13.7067C63.9708 13.8809 64.1144 14.0734 64.2332 14.2764C62.3993 14.8383 60.9583 16.3061 60.4316 18.1556C60.2104 18.0323 60.0009 17.8789 59.8129 17.691C58.7146 16.5919 58.7146 14.805 59.8129 13.7067ZM80.111 22.0473H76.7617L76.7644 17.3692H80.111C81.4006 17.3692 82.4501 18.4187 82.4501 19.7083C82.4501 20.9978 81.4006 22.0473 80.111 22.0473Z" fill="white"/>
<path id="Vector_2" d="M27.2179 42.9034C27.4235 43.6428 28.0951 44.1264 28.826 44.1264C28.9748 44.1264 29.1256 44.1068 29.275 44.0651L46.4261 39.2911C47.315 39.0437 47.8352 38.1222 47.5878 37.2333C47.3405 36.3451 46.4196 35.825 45.5301 36.0723L28.379 40.8457C27.4907 41.0937 26.9706 42.0145 27.2179 42.9034Z" fill="white"/>
<path id="Vector_3" d="M34.7676 45.108C33.8369 46.0386 33.3246 47.2754 33.3246 48.5917C33.3246 49.9074 33.8369 51.1442 34.7676 52.0748C35.7282 53.0348 36.9891 53.5152 38.2506 53.5152C39.5122 53.5152 40.7737 53.0348 41.7344 52.0748C43.6551 50.1541 43.6551 47.0287 41.7344 45.108C39.8137 43.1873 36.6882 43.1873 34.7676 45.108ZM39.3712 49.7117C38.7532 50.3297 37.7481 50.3297 37.1301 49.7117C36.8305 49.4127 36.6661 49.0146 36.6661 48.5911C36.6661 48.1682 36.8312 47.7701 37.1301 47.4705C37.4394 47.1618 37.8454 47.0072 38.2506 47.0072C38.6566 47.0072 39.0625 47.1618 39.3712 47.4705C39.9892 48.0886 39.9892 49.0943 39.3712 49.7117Z" fill="white"/>
<path id="Vector_4" d="M42.562 35.1605C44.4827 33.2392 44.4827 30.1144 42.562 28.1937C41.6314 27.263 40.394 26.7507 39.0783 26.7507C37.7626 26.7507 36.5252 27.263 35.5952 28.1937C33.6745 30.1144 33.6745 33.2392 35.5952 35.1605C36.5559 36.1205 37.8167 36.6009 39.0783 36.6009C40.3398 36.6009 41.6013 36.1205 42.562 35.1605ZM37.9577 30.5562C38.2573 30.2567 38.6554 30.0922 39.0783 30.0922C39.5018 30.0922 39.8999 30.2567 40.1988 30.5562C40.8169 31.1743 40.8169 32.1793 40.1988 32.7974C39.5814 33.4154 38.5757 33.4154 37.9577 32.7974C37.3403 32.1793 37.3403 31.1743 37.9577 30.5562Z" fill="white"/>
<path id="Vector_5" d="M16.8673 39.4509C16.2147 38.7983 15.1568 38.7983 14.5042 39.4509L9.75693 44.1982C9.44367 44.5114 9.26746 44.9363 9.26746 45.3794C9.26746 45.8226 9.44367 46.2474 9.75693 46.5607L30.9433 67.747C31.2689 68.0727 31.697 68.2358 32.1245 68.2358C32.552 68.2358 32.9795 68.0727 33.3058 67.747L64.9818 36.0703C65.6345 35.4177 65.6345 34.3598 64.9818 33.7071L43.7962 12.5215C43.4829 12.2082 43.058 12.032 42.6149 12.032C42.1718 12.032 41.7469 12.2082 41.4336 12.5215L23.9555 29.9995C23.3029 30.6522 23.3029 31.7101 23.9555 32.3627C24.6075 33.0147 25.6654 33.0147 26.3181 32.3627L42.6149 16.0659L61.438 34.889L32.1245 64.2026L13.3014 45.3794L16.8673 41.8134C17.5193 41.1608 17.52 40.1036 16.8673 39.4509Z" fill="white"/>
<path id="Vector_6" d="M64.677 43.6832C64.2371 43.6832 63.8064 43.862 63.4957 44.1727C63.185 44.4834 63.0062 44.9147 63.0062 45.354C63.0062 45.7932 63.185 46.2246 63.4957 46.5352C63.8064 46.8459 64.2371 47.0247 64.677 47.0247C65.1162 47.0247 65.5469 46.8459 65.8582 46.5352C66.1689 46.2246 66.3477 45.7932 66.3477 45.354C66.3477 44.9147 66.1689 44.4834 65.8582 44.1727C65.5469 43.862 65.1162 43.6832 64.677 43.6832Z" fill="white"/>
<path id="Vector_7" d="M21.5916 37.0871C21.9042 36.7764 22.0818 36.347 22.0818 35.9058C22.0818 35.4666 21.9042 35.0372 21.5916 34.7246C21.281 34.4139 20.8516 34.2351 20.411 34.2351C19.9712 34.2351 19.5404 34.4139 19.2298 34.7246C18.9185 35.0352 18.7403 35.4666 18.7403 35.9058C18.7403 36.347 18.9185 36.7764 19.2298 37.0871C19.5417 37.3997 19.9712 37.5766 20.411 37.5766C20.8516 37.5766 21.281 37.3997 21.5916 37.0871Z" fill="white"/>
</g>
</svg>

<svg width="86" height="78" viewBox="0 0 86 78" fill="none" xmlns="http://www.w3.org/2000/svg"><g fill="#fff"><path d="M80.111 14.028h-3.345l.004-5.98c.002-4.014-3.262-7.282-7.277-7.284L44.108.75h-.003a5.375 5.375 0 0 0-3.826 1.585L2.382 40.23A7.232 7.232 0 0 0 .25 45.38c0 1.945.757 3.773 2.132 5.148l24.594 24.594a7.258 7.258 0 0 0 5.148 2.129c1.864 0 3.729-.71 5.148-2.129l23.86-23.86a1.67 1.67 0 1 0-2.363-2.363l-23.86 23.86a3.943 3.943 0 0 1-5.57 0L4.745 48.166a3.914 3.914 0 0 1-1.154-2.785c0-1.053.41-2.042 1.154-2.786L42.642 4.698c.39-.391.91-.607 1.463-.607h.001l25.385.015a3.944 3.944 0 0 1 3.937 3.941l-.008 14h-7.525a2.333 2.333 0 0 1-1.66-.692 6.13 6.13 0 0 0 1.925-1.302 6.166 6.166 0 0 0 0-8.709 6.165 6.165 0 0 0-8.71 0 6.166 6.166 0 0 0 0 8.71c.89.89 1.988 1.449 3.138 1.68a5.69 5.69 0 0 0 5.307 3.655h7.523l-.004 8.009c0 .553-.216 1.071-.606 1.462l-4.587 4.587a1.67 1.67 0 0 0 2.362 2.363l4.588-4.587a5.377 5.377 0 0 0 1.584-3.823l.005-8.011h3.351a5.687 5.687 0 0 0 5.68-5.68 5.687 5.687 0 0 0-5.68-5.681Zm-20.298-.321c.55-.55 1.27-.824 1.992-.824a2.81 2.81 0 0 1 1.992.824c.174.174.317.366.436.57a5.703 5.703 0 0 0-3.801 3.879 2.8 2.8 0 0 1-.62-.465 2.82 2.82 0 0 1 0-3.984Zm20.298 8.34h-3.35l.003-4.678h3.347c1.29 0 2.34 1.05 2.34 2.34 0 1.289-1.05 2.338-2.34 2.338Z"/><path d="M27.218 42.903a1.67 1.67 0 0 0 2.057 1.162l17.151-4.774a1.671 1.671 0 0 0-.896-3.219L28.38 40.846a1.671 1.671 0 0 0-1.161 2.057ZM34.768 45.108a4.893 4.893 0 0 0-1.443 3.484c0 1.315.512 2.552 1.443 3.483.96.96 2.221 1.44 3.483 1.44 1.261 0 2.523-.48 3.483-1.44a4.932 4.932 0 0 0 0-6.967 4.932 4.932 0 0 0-6.966 0Zm4.603 4.604a1.586 1.586 0 0 1-2.705-1.12 1.582 1.582 0 0 1 1.584-1.584c.407 0 .813.154 1.121.463a1.586 1.586 0 0 1 0 2.24ZM42.562 35.16a4.932 4.932 0 0 0 0-6.966 4.894 4.894 0 0 0-3.484-1.443 4.892 4.892 0 0 0-3.483 1.443 4.932 4.932 0 0 0 0 6.966c.96.96 2.222 1.44 3.483 1.44 1.262 0 2.523-.48 3.484-1.44Zm-4.604-4.604c.3-.3.697-.464 1.12-.464a1.586 1.586 0 0 1 1.12 2.705 1.586 1.586 0 0 1-2.24 0 1.587 1.587 0 0 1 0-2.24Z"/><path d="M16.867 39.45a1.67 1.67 0 0 0-2.363 0l-4.747 4.748a1.67 1.67 0 0 0 0 2.363l21.186 21.186a1.667 1.667 0 0 0 2.362 0L64.983 36.07a1.67 1.67 0 0 0 0-2.363L43.796 12.521a1.67 1.67 0 0 0-2.362 0L23.956 30a1.671 1.671 0 0 0 2.362 2.363l16.297-16.297 18.823 18.823-29.314 29.314-18.823-18.824 3.566-3.566a1.67 1.67 0 0 0 0-2.362ZM64.677 43.683c-.44 0-.87.179-1.181.49-.311.31-.49.742-.49 1.181 0 .44.179.87.49 1.181.31.31.741.49 1.181.49.44 0 .87-.18 1.181-.49.31-.31.49-.742.49-1.181 0-.44-.18-.87-.49-1.181a1.685 1.685 0 0 0-1.181-.49Z"/><path d="M21.592 37.087c.312-.31.49-.74.49-1.181 0-.44-.178-.869-.49-1.181a1.68 1.68 0 0 0-1.181-.49c-.44 0-.87.179-1.181.49-.311.31-.49.742-.49 1.18 0 .442.179.871.49 1.182a1.672 1.672 0 0 0 2.362 0Z"/></g></svg>
